X: 4
T: The Tap Room
R: reel
M: 4/4
L: 1/8
K: Edor
E2Be edB2|dBAF DEFD|E2Be edB2|dBAF BFAF:|e2ef gfef|dBAF DEFD|~e3f gfef|dBAF BFAF|edef gfef|dBAB defg|abag fgfe|dBAF BFAF||


Tune 711	Setting 13773

